flaticon/constructions/plier.svg

<svg xmlns="http://www.w3.org/2000/svg" width="32" height="32" viewBox="0 0 24 24">
    <path d="M 16.335938 11.640625 C 15.9375 10.839844 15.457031 10.160156 14.976562 9.601562 L 16.335938 8.28125 C 16.414062 8.199219 16.457031 8.078125 16.457031 7.960938 C 16.457031 7.839844 16.375 7.761719 16.296875 7.679688 L 14.695312 6.480469 C 14.613281 6.398438 14.496094 6.371094 14.375 6.402344 L 14.375 6.121094 L 15.496094 4.640625 C 15.617188 4.519531 15.617188 4.320312 15.535156 4.199219 L 13.136719 0.199219 C 13.054688 0.078125 12.9375 0 12.777344 0 L 11.175781 0 C 11.054688 0 10.894531 0.078125 10.855469 0.199219 L 8.457031 4.199219 C 8.335938 4.320312 8.375 4.519531 8.457031 4.679688 L 9.574219 6.160156 L 9.574219 6.394531 C 9.507812 6.40625 9.4375 6.433594 9.375 6.480469 L 7.777344 7.679688 C 7.695312 7.71875 7.617188 7.839844 7.617188 7.960938 C 7.617188 8.078125 7.65625 8.199219 7.734375 8.28125 L 9.054688 9.601562 C 8.414062 10.320312 7.816406 11.28125 7.253906 12.480469 C 5.976562 15.238281 6.175781 19.039062 7.695312 21.71875 L 7.777344 21.839844 C 8.175781 22.519531 8.496094 23.078125 8.855469 23.519531 C 9.097656 23.800781 9.457031 24 9.816406 24 C 9.855469 24 9.855469 24 9.894531 24 C 10.214844 24 10.574219 23.878906 10.816406 23.558594 C 11.253906 23.121094 11.296875 22.441406 10.976562 21.921875 C 9.574219 19.761719 9.214844 18.640625 9.214844 16.320312 C 9.214844 14.601562 11.019531 11.917969 11.847656 10.792969 C 11.890625 10.796875 11.933594 10.800781 11.976562 10.800781 C 12.035156 10.800781 12.09375 10.796875 12.148438 10.789062 C 12.964844 11.882812 14.816406 14.621094 14.816406 16.359375 C 14.816406 18.640625 14.457031 19.800781 13.015625 21.960938 C 12.65625 22.480469 12.734375 23.160156 13.175781 23.601562 C 13.414062 23.878906 13.734375 24 14.097656 24 C 14.097656 24 14.136719 24 14.136719 24 C 14.535156 24 14.855469 23.800781 15.097656 23.519531 C 15.296875 23.238281 15.574219 22.917969 15.816406 22.558594 C 17.976562 19.398438 18.175781 15.078125 16.335938 11.640625 Z M 11.976562 3.601562 L 12.375 3.601562 L 12.375 4.398438 L 11.574219 4.398438 L 11.574219 3.601562 Z M 12.214844 9.960938 C 12.179688 9.960938 12.148438 9.96875 12.113281 9.988281 C 12.070312 9.996094 12.023438 10 11.976562 10 C 11.972656 10 11.972656 10 11.972656 10 C 11.925781 9.964844 11.871094 9.9375 11.816406 9.921875 C 11.425781 9.839844 11.1875 9.53125 11.175781 9.183594 C 11.179688 9.078125 11.199219 8.980469 11.238281 8.894531 C 11.28125 8.796875 11.347656 8.703125 11.421875 8.625 C 11.4375 8.609375 11.457031 8.59375 11.472656 8.578125 C 11.476562 8.578125 11.476562 8.574219 11.480469 8.574219 C 11.597656 8.480469 11.738281 8.421875 11.894531 8.402344 C 11.921875 8.402344 11.949219 8.398438 11.976562 8.398438 C 12.003906 8.398438 12.03125 8.402344 12.058594 8.402344 C 12.460938 8.445312 12.777344 8.789062 12.777344 9.199219 C 12.777344 9.546875 12.554688 9.839844 12.246094 9.953125 C 12.234375 9.953125 12.226562 9.957031 12.214844 9.960938 Z M 14.695312 4.359375 L 13.65625 5.761719 C 13.617188 5.839844 13.574219 5.921875 13.574219 6 L 13.574219 6.921875 L 12.65625 7.71875 C 12.535156 7.679688 12.457031 7.679688 12.375 7.640625 L 12.375 5.199219 C 12.816406 5.199219 13.175781 4.839844 13.175781 4.398438 L 13.175781 3.601562 C 13.175781 3.160156 12.816406 2.800781 12.375 2.800781 L 12.375 0.800781 L 12.574219 0.800781 Z M 9.253906 4.359375 L 11.414062 0.800781 L 11.574219 0.800781 L 11.574219 2.800781 C 11.136719 2.800781 10.777344 3.160156 10.777344 3.601562 L 10.777344 4.398438 C 10.777344 4.839844 11.136719 5.199219 11.574219 5.199219 L 11.574219 7.652344 C 11.5 7.671875 11.425781 7.695312 11.351562 7.726562 L 10.375 6.914062 L 10.375 6 C 10.375 5.921875 10.335938 5.839844 10.296875 5.761719 Z M 8.414062 16.398438 C 8.414062 18.878906 8.816406 20.160156 10.296875 22.398438 C 10.414062 22.601562 10.375 22.878906 10.214844 23.039062 C 10.136719 23.160156 10.015625 23.199219 9.855469 23.199219 C 9.695312 23.199219 9.574219 23.121094 9.496094 23.039062 C 9.175781 22.640625 8.894531 22.121094 8.496094 21.441406 L 8.414062 21.320312 C 6.976562 18.839844 6.816406 15.320312 7.976562 12.800781 C 8.574219 11.558594 9.214844 10.558594 9.894531 9.878906 C 10.054688 9.71875 10.054688 9.480469 9.894531 9.320312 L 8.617188 8.039062 L 9.574219 7.320312 L 9.640625 7.375 C 9.667969 7.410156 9.707031 7.441406 9.761719 7.472656 L 9.96875 7.640625 L 10.6875 8.25 C 10.675781 8.269531 10.664062 8.285156 10.652344 8.304688 C 10.527344 8.488281 10.441406 8.695312 10.402344 8.921875 C 10.398438 8.929688 10.398438 8.9375 10.398438 8.941406 C 10.394531 8.957031 10.394531 8.96875 10.390625 8.980469 C 10.390625 8.992188 10.386719 9.007812 10.386719 9.019531 C 10.386719 9.03125 10.382812 9.039062 10.382812 9.050781 C 10.382812 9.066406 10.378906 9.082031 10.378906 9.101562 C 10.378906 9.109375 10.378906 9.117188 10.378906 9.125 C 10.375 9.148438 10.375 9.175781 10.375 9.199219 C 10.375 9.230469 10.375 9.261719 10.378906 9.292969 C 10.378906 9.304688 10.378906 9.320312 10.382812 9.332031 C 10.382812 9.347656 10.382812 9.363281 10.386719 9.378906 C 10.386719 9.398438 10.390625 9.417969 10.394531 9.4375 C 10.394531 9.441406 10.394531 9.449219 10.394531 9.453125 C 10.429688 9.660156 10.5 9.851562 10.601562 10.019531 C 10.605469 10.023438 10.609375 10.027344 10.609375 10.03125 C 10.617188 10.042969 10.625 10.054688 10.632812 10.0625 C 10.75 10.25 10.90625 10.40625 11.089844 10.53125 C 10.128906 11.933594 8.414062 14.5625 8.414062 16.398438 Z M 15.175781 22.160156 C 14.9375 22.480469 14.695312 22.800781 14.496094 23.039062 C 14.414062 23.160156 14.296875 23.238281 14.136719 23.238281 C 14.015625 23.238281 13.894531 23.199219 13.777344 23.078125 C 13.574219 22.921875 13.574219 22.640625 13.695312 22.441406 C 15.214844 20.121094 15.617188 18.839844 15.617188 16.398438 C 15.617188 14.558594 13.894531 11.921875 12.894531 10.519531 C 13.296875 10.238281 13.574219 9.71875 13.617188 9.238281 C 13.617188 9.003906 13.550781 8.765625 13.433594 8.542969 C 13.398438 8.464844 13.355469 8.386719 13.304688 8.3125 L 14.457031 7.359375 L 15.414062 8.078125 L 14.136719 9.359375 C 13.976562 9.519531 13.976562 9.761719 14.136719 9.921875 C 14.65625 10.441406 15.175781 11.160156 15.65625 12.039062 C 17.375 15.238281 17.175781 19.199219 15.175781 22.160156 Z M 15.175781 22.160156"/>
</svg>

<svg xmlns="http://www.w3.org/2000/svg" width="32" height="32" viewBox="0 0 24 24">
    <path d="M16.336 11.64a9.897 9.897 0 0 0-1.36-2.038l1.36-1.32a.473.473 0 0 0 .121-.321c0-.121-.082-.2-.16-.281l-1.602-1.2a.326.326 0 0 0-.32-.078v-.28l1.121-1.481a.361.361 0 0 0 .04-.442l-2.4-4A.418.418 0 0 0 12.778 0h-1.601c-.121 0-.281.078-.32.2l-2.399 4c-.121.12-.082.32 0 .48l1.117 1.48v.235a.47.47 0 0 0-.199.085l-1.598 1.2c-.082.039-.16.16-.16.28 0 .118.04.24.117.321l1.32 1.32c-.64.72-1.238 1.68-1.8 2.88-1.277 2.757-1.078 6.558.441 9.238l.082.12c.399.68.72 1.24 1.078 1.68.243.282.602.481.961.481h.079c.32 0 .68-.121.921-.441.438-.438.48-1.118.16-1.637-1.402-2.16-1.761-3.281-1.761-5.602 0-1.718 1.805-4.402 2.633-5.527a1.229 1.229 0 0 0 .3-.004c.817 1.094 2.668 3.832 2.668 5.57 0 2.282-.359 3.442-1.8 5.602-.36.52-.282 1.2.16 1.64.238.278.558.399.922.399h.039c.398 0 .718-.2.96-.48.2-.282.477-.602.72-.961 2.16-3.16 2.359-7.48.519-10.918zm-4.36-8.038h.399v.796h-.8v-.796zm.239 6.359a.199.199 0 0 0-.102.027.774.774 0 0 1-.136.012h-.004a.49.49 0 0 0-.157-.078.778.778 0 0 1-.64-.738.764.764 0 0 1 .062-.29.97.97 0 0 1 .184-.269c.015-.016.035-.031.05-.047.005 0 .005-.004.008-.004a.818.818 0 0 1 .415-.172c.027 0 .054-.004.082-.004.027 0 .054.004.082.004a.807.807 0 0 1 .718.797c0 .348-.222.64-.53.754-.013 0-.02.004-.032.008zm2.48-5.602l-1.039 1.403c-.039.078-.082.16-.082.238v.922l-.918.797c-.12-.04-.199-.04-.281-.078V5.199c.441 0 .8-.36.8-.8v-.797c0-.442-.359-.801-.8-.801v-2h.2zm-5.441 0l2.16-3.558h.16v2a.801.801 0 0 0-.797.8v.797c0 .442.36.801.797.801v2.453c-.074.02-.148.043-.222.075l-.977-.813V6a.57.57 0 0 0-.078-.238zm-.84 12.04c0 2.48.402 3.761 1.883 6a.548.548 0 0 1-.082.64c-.078.121-.2.16-.36.16a.494.494 0 0 1-.359-.16c-.32-.398-.601-.918-1-1.598l-.082-.12c-1.437-2.481-1.598-6-.437-8.52.597-1.242 1.238-2.242 1.918-2.922a.385.385 0 0 0 0-.559L8.617 8.04l.957-.72.067.055a.4.4 0 0 0 .12.098l.208.168.719.609-.036.055c-.125.183-.21.39-.25.617-.004.008-.004.015-.004.02-.003.015-.003.027-.007.038 0 .012-.004.028-.004.04 0 .011-.004.02-.004.03 0 .016-.004.032-.004.052v.023c-.004.023-.004.05-.004.074a.753.753 0 0 0 .008.133c0 .016 0 .031.004.047 0 .02.004.039.008.059v.015c.035.207.105.399.207.567.003.003.007.007.007.011.008.012.016.024.024.031.117.188.273.344.457.47-.961 1.402-2.676 4.03-2.676 5.866zm6.762 5.761c-.239.32-.48.64-.68.88-.082.12-.2.198-.36.198a.478.478 0 0 1-.359-.16c-.203-.156-.203-.437-.082-.637 1.52-2.32 1.922-3.601 1.922-6.043 0-1.84-1.722-4.476-2.722-5.878.402-.282.68-.801.722-1.282 0-.234-.066-.472-.183-.695a1.498 1.498 0 0 0-.13-.23l1.153-.954.957.72-1.277 1.28a.39.39 0 0 0 0 .563c.52.52 1.039 1.238 1.52 2.117 1.718 3.2 1.519 7.16-.481 10.121zm0 0"/>
</svg>
